home/.icons/Gruvbox-Plus-Dark/apps/16/pcsxr.svg

<svg width="16" height="16" version="1.1" xmlns="http://www.w3.org/2000/svg">
  <defs>
    <style type="text/css" id="current-color-scheme">.ColorScheme-Text { color:#ebdbb2; } .ColorScheme-Highlight { color:#458588; }</style>
  </defs>
  <path class="ColorScheme-Text" fill="currentColor" d="m6.108 1.834v11.56l2.502 0.768v-9.653c0-0.255 0.031-0.443 0.138-0.551 0.105-0.148 0.204-0.163 0.354-0.098 0.362 0.105 0.532 0.433 0.532 0.965v3.88c0.81 0.385 1.536 0.424 2.068 0.02 0.554-0.384 0.848-1.066 0.848-2.088 0-1.066-0.2-1.889-0.671-2.423-0.426-0.574-1.176-1.034-2.285-1.419-1.383-0.447-2.548-0.767-3.486-0.965zm-0.769 6.994-0.492 0.157-3.093 1.103-0.532 0.217c-0.81 0.34-1.243 0.704-1.221 1.024 0.042 0.468 0.577 0.808 1.537 1.064 1.246 0.335 2.508 0.411 3.801 0.217v-1.32l-0.492 0.177-0.552 0.217-0.886 0.177-0.847-0.098c-0.17-0.109-0.227-0.229-0.119-0.335 0.138-0.085 0.283-0.158 0.434-0.217l0.571-0.197 1.891-0.67v-1.516zm7.171 0.61c-0.232-0.01-0.465 0.01-0.689 0.019-0.828 0.018-1.677 0.154-2.561 0.434v1.556l1.753-0.61 0.906-0.316 0.591-0.157c0.382-0.101 0.788 0.04 0.788 0.04 0.234 0.019 0.352 0.108 0.394 0.216 0.042 0.128-0.114 0.227-0.433 0.335l-0.788 0.315-3.211 1.142v1.517l5.102-1.813 0.433-0.196c0.855-0.321 1.244-0.658 1.202-1.084-0.023-0.406-0.507-0.726-1.36-1.004-0.687-0.232-1.403-0.365-2.127-0.394z"/>
</svg>

<svg xmlns="http://www.w3.org/2000/svg" style="isolation:isolate" width="16" height="16" viewBox="0 0 16 16">
 <defs>
  <style id="current-color-scheme" type="text/css">
   .ColorScheme-Text { color:#ebdbb2; } .ColorScheme-Highlight { color:#458588; }
  </style>
  <linearGradient id="arrongin" x1="0%" x2="0%" y1="0%" y2="100%">
   <stop offset="0%" style="stop-color:#d79921; stop-opacity:1"/>
   <stop offset="100%" style="stop-color:#b57614; stop-opacity:1"/>
  </linearGradient>
  <linearGradient id="aurora" x1="0%" x2="0%" y1="0%" y2="100%">
   <stop offset="0%" style="stop-color:#83a598; stop-opacity:1"/>
   <stop offset="100%" style="stop-color:#b16286; stop-opacity:1"/>
  </linearGradient>
  <linearGradient id="fitdance" x1="0%" x2="0%" y1="0%" y2="100%">
   <stop offset="0%" style="stop-color:#8ec07c; stop-opacity:1"/>
   <stop offset="100%" style="stop-color:#458588; stop-opacity:1"/>
  </linearGradient>
  <linearGradient id="oomox" x1="0%" x2="0%" y1="0%" y2="100%">
   <stop offset="0%" style="stop-color:#458588; stop-opacity:1"/>
   <stop offset="100%" style="stop-color:#928374; stop-opacity:1"/>
  </linearGradient>
  <linearGradient id="rainblue" x1="0%" x2="0%" y1="0%" y2="100%">
   <stop offset="0%" style="stop-color:#b8bb26; stop-opacity:1"/>
   <stop offset="100%" style="stop-color:#076678; stop-opacity:1"/>
  </linearGradient>
  <linearGradient id="sunrise" x1="0%" x2="0%" y1="0%" y2="100%">
   <stop offset="0%" style="stop-color: #fe8019; stop-opacity:1"/>
   <stop offset="100%" style="stop-color: #fabd2f; stop-opacity:1"/>
  </linearGradient>
  <linearGradient id="telinkrin" x1="0%" x2="0%" y1="0%" y2="100%">
   <stop offset="0%" style="stop-color: #83a598; stop-opacity:1"/>
   <stop offset="100%" style="stop-color: #83a598; stop-opacity:1"/>
  </linearGradient>
  <linearGradient id="60spsycho" x1="0%" x2="0%" y1="0%" y2="100%">
   <stop offset="0%" style="stop-color: #fb4934; stop-opacity:1"/>
   <stop offset="25%" style="stop-color: #fabd2f; stop-opacity:1"/>
   <stop offset="50%" style="stop-color: #fe8019; stop-opacity:1"/>
   <stop offset="100%" style="stop-color: #689d6a; stop-opacity:1"/>
  </linearGradient>
  <linearGradient id="90ssummer" x1="0%" x2="0%" y1="0%" y2="100%">
   <stop offset="0%" style="stop-color: #b16286; stop-opacity:1"/>
   <stop offset="20%" style="stop-color: #8ec07c; stop-opacity:1"/>
   <stop offset="50%" style="stop-color: #fabd2f; stop-opacity:1"/>
   <stop offset="100%" style="stop-color: #458588; stop-opacity:1"/>
  </linearGradient>
  <linearGradient id="cyberneon" x1="0%" x2="0%" y1="0%" y2="100%">
    <stop offset="0" style="stop-color:#83a598; stop-opacity:1"/>
    <stop offset="1" style="stop-color:#b16286; stop-opacity:1"/>
  </linearGradient>
 </defs>
 <path style="fill:currentColor" class="ColorScheme-Text" d="M 6.108 1.834 L 6.108 13.398 L 8.61 14.166 L 8.61 4.513 C 8.61 4.258 8.641 4.07 8.748 3.962 C 8.853 3.814 8.952 3.799 9.102 3.864 C 9.464 3.969 9.634 4.297 9.634 4.829 L 9.634 8.709 C 10.444 9.094 11.17 9.133 11.702 8.729 C 12.256 8.345 12.55 7.663 12.55 6.641 C 12.55 5.575 12.35 4.752 11.879 4.218 C 11.453 3.644 10.703 3.184 9.594 2.799 C 8.211 2.352 7.046 2.032 6.108 1.834 Z M 5.339 8.828 L 4.847 8.985 L 1.754 10.088 L 1.222 10.305 C 0.412 10.645 -0.021 11.009 0.001 11.329 C 0.043 11.797 0.578 12.137 1.538 12.393 C 2.784 12.728 4.046 12.804 5.339 12.61 L 5.339 11.29 L 4.847 11.467 L 4.295 11.684 L 3.409 11.861 L 2.562 11.763 C 2.392 11.654 2.335 11.534 2.443 11.428 C 2.581 11.343 2.726 11.27 2.877 11.211 L 3.448 11.014 L 5.339 10.344 L 5.339 8.828 Z M 12.51 9.438 C 12.278 9.428 12.045 9.448 11.821 9.457 C 10.993 9.475 10.144 9.611 9.26 9.891 L 9.26 11.447 L 11.013 10.837 L 11.919 10.521 L 12.51 10.364 C 12.892 10.263 13.298 10.404 13.298 10.404 C 13.532 10.423 13.65 10.512 13.692 10.62 C 13.734 10.748 13.578 10.847 13.259 10.955 L 12.471 11.27 L 9.26 12.412 L 9.26 13.929 L 10.757 13.397 L 14.362 12.116 L 14.795 11.92 C 15.65 11.599 16.039 11.262 15.997 10.836 C 15.974 10.43 15.49 10.11 14.637 9.832 C 13.95 9.6 13.234 9.467 12.51 9.438 L 12.51 9.438 Z"/>
</svg>
